X: 1
T: The Maids Of Mitchelstown (2nd voice, as played by the Bothy Band)
M: 4/4
L: 1/8
R: reel
K: Dmin
|:F3D E4|DFED CA,A,2|F3D E2EF|GAGE EDD2:|
|:C2AG G4|AG^FA G4|ECDA, C3C|B,CDE A,DD2:|
